X:8
T:Lord Mayo
T:Tiarna Mhaigh Eo
R:march
C:David Murphy (Daithi O Murchu) or Thady Keenan (Thady \'O Cian\'ain)
H:David Murphy was harper to Lord Mayo
Z:id:hn-march-8
M:2/4
L:1/8
K:Ador
AG AB|e2 e/d/B/d/|eA AB/A/|G/A/G/F/ ED|
AG AB|e2 g>f|ee dB/G/|1 A2 AE:|2 A2 A2||
|:a2 g/e/g/a/|b2 b/a/g|ed d/e/g|G>A GE|
[1 a2 g/e/g/a/|b2 d'/b/a/g/|ed d/e/g|a2 ae:|
[2 A/G/A/B/ dB|AG g>e|dd B/d/B/G/|A2 AE||
<end>
<start>
